!!!!SEGMENT: pl-sa--l-1636--114_anonim--agnus-dei.krn
!!!cenid: 17xx:821
!!!COM: Anonim
!!!COM-rismid: pe30004985
!!!CDT:
!!!CNT:
!!!OTL: Agnus Dei
!!!PDT:
!!!AGN: Sacred; Mass section
!!!SMS-siglum: PL-SA
!!!SMS-shelfmark: L 1636
!!!SMS-shelfwork: 114 W
!!!SMS-variant:
!!!SMS-altvar:
!!!NIFC-rismid: 1001100282
!!!system-decoration: {(s1,s2)}
!!!AIN: 1 empty
!!!key:
**kern	**kern	**text
*part1	*part1	*part1
*staff2	*staff1	*staff1
*Iempty	*Iorgan	*
*	*I"Organo	*
*	*I'Org.	*
*clefF4	*clefC1	*
*k[]	*k[]	*
*d:	*d:	*
*M4/4	*M4/4	*
*met(c)	*met(c)	*
=1	=1	=1
*2\right	*	*
*	*lig	*
!LO:TX:a:t=P:problem=wszystkie nuty mają caudy z prawej strony	!	!
1D	1d	A-
=2-	=2-	=2-
1DD	1f	-gnus
=3-	=3-	=3-
4AA/	1c	De-
4BB/	.	.
4C/	.	.
4GG/	.	.
=4-	=4-	=4-
*Xtuplet	*	*
3BB-X/	1d	-i
3GG/	.	.
3AA/	.	.
*tuplet	*	*
=5-	=5-	=5-
1C	1e	.
=6-	=6-	=6-
1D	1f	.
=7-	=7-	=7-
2C/	1d	.
2GG/	.	.
=8-	=8-	=8-
1AA	1c	.
*	*Xlig	*
=9-	=9-	=9-
1D	1d	.
=10-	=10-	=10-
!LO:N:vis=0	!	!
1D	1d	.
=11	=11	=11
*	*lig	*
2C/	1e	qui
2AA/	.	.
=12-	=12-	=12-
2D/	1f	.
2BB-X/	.	.
!!LO:LB:g=original
=13-	=13-	=13-
2C/	1g	tol-
!LO:TX:a:t=P:problem=w źródle nuta słabo widoczna	!	!
2GG/	.	.
=14-	=14-	=14-
4C\	1g	.
4D\	.	.
4E\	.	.
4C\	.	.
=15-	=15-	=15-
4D\	1f	.
4E\	.	.
4F\	.	.
4G\	.	.
=16-	=16-	=16-
1A	1e	.
=17-	=17-	=17-
1D	1d	.
=18-	=18-	=18-
2C#X/	1e	.
2AA/	.	.
=19-	=19-	=19-
2BB-X/	1f	.
2GG/	.	.
=20-	=20-	=20-
1AA/	1e	.
*	*Xlig	*
=21-	=21-	=21-
1D	1d	-lis
=22	=22	=22
*	*lig	*
1C	1e	pec-
=23-	=23-	=23-
2D/	1f	.
2BB/	.	.
*	*Xlig	*
=24-	=24-	=24-
1C	1g	-ca-
=25-	=25-	=25-
*	*lig	*
4C/	1g	.
4BB/	.	.
4AA/	.	.
4GG/	.	.
=26-	=26-	=26-
1FF	1a	.
=27-	=27-	=27-
2D/	1d	-ta
4C/	.	.
4BB/	.	.
=28-	=28-	=28-
2AA/	1e	.
2C/	.	.
=29-	=29-	=29-
1D	1f	.
=30-	=30-	=30-
1AA	1e	.
=31-	=31-	=31-
1D	1d	.
*	*Xlig	*
=32	=32	=32
*	*lig	*
2C/	1c	mun-
2AA/	.	.
=33-	=33-	=33-
2BB/	1d	.
2GG/	.	.
=34-	=34-	=34-
2C/	1e	.
2AA/	.	.
=35-	=35-	=35-
1D	1f	-di
!!LO:PB:g=original
=36-	=36-	=36-
1AA	1e	.
=37-	=37-	=37-
1D	1d	.
*	*Xlig	*
=38	=38	=38
2D/	1d	Do-
2BB/	.	.
=39-	=39-	=39-
*	*lig	*
2C/	1e	-na
2AA/	.	.
=40-	=40-	=40-
2D/	1f	.
2BB/	.	.
=41-	=41-	=41-
4C/	1g	.
4BB/	.	.
4AA/	.	.
4GG/	.	.
=42-	=42-	=42-
4FF/	1a	.
4GG/	.	.
4AA/	.	.
4BB/	.	.
*	*Xlig	*
=43-	=43-	=43-
1C	1g	.
=44	=44	=44
*	*lig	*
4D\	1f	no-
4E\	.	.
4F\	.	.
4G\	.	.
=45-	=45-	=45-
1A	1e	.
=46-	=46-	=46-
2D/	1f	.
2BB/	.	.
=47-	=47-	=47-
2C/	1g	.
2GG/	.	.
=48-	=48-	=48-
2BB/	1f	.
2D/	.	.
=49-	=49-	=49-
1C	1e	.
*	*Xlig	*
=50-	=50-	=50-
1AA	1c	-bis
=51	=51	=51
*	*lig	*
4D\	1d	pa-
4E\	.	.
4F\	.	.
4G\	.	.
=52-	=52-	=52-
2A\	1e	.
2AA/	.	.
=53-	=53-	=53-
1D	1f	.
=54-	=54-	=54-
2BB-X/	1d	.
2GG/	.	.
=55-	=55-	=55-
1AA	1c#i	.
=56-	=56-	=56-
!LO:N:vis=0	!	!
1D	1d	-cem
*	*Xlig	*
==	==	==
*-	*-	*-
!!title: @{OTL};
!!!RDF**kern: > = above
!!!RDF**kern: < = below
!!!RDF**kern: i = editorial accidental
!!!EED: Wojciech Jakubiak-Danek
!!!EST: 2020-12-10
!!!URL-scan: http://repozytorium.nifc.pl/skany/pl-sa-nut--l1636
!!!ONB-nifc: 61v-62r, skan 0049, s. 3-5
!!!ENC: Tomasz Grochalski
!!!END: 2020-06-14
